src/img/section-services/home.svg

<svg xmlns="http://www.w3.org/2000/svg" width="512" height="512"><path d="M352 392h64a8 8 0 008-8v-48a40 40 0 00-80 0v48a8 8 0 008 8zm40-78.624A24.039 24.039 0 01408 336v8h-16zM392 360h16v16h-16zm-32-24a24.039 24.039 0 0116-22.624V344h-16zm0 24h16v16h-16zM96 392h64a8 8 0 008-8v-48a40 40 0 00-80 0v48a8 8 0 008 8zm40-78.624A24.039 24.039 0 01152 336v8h-16zM136 360h16v16h-16zm-32-24a24.039 24.039 0 0116-22.624V344h-16zm0 24h16v16h-16z"/><path d="M456 408.806V280h8a8 8 0 007.761-6.06l6.485-25.94H488a8 8 0 007.761-9.94l-32-128A8 8 0 00456 104h-48V88a8 8 0 008-8V32a8 8 0 00-8-8h-96a8 8 0 00-8 8v48a8 8 0 008 8v16H56a8 8 0 00-7.761 6.06l-32 128A8 8 0 0024 248h9.754l6.485 25.94A8 8 0 0048 280h8v104.19A44.054 44.054 0 0016 428a43.561 43.561 0 003.006 16A43.561 43.561 0 0016 460v20a8 8 0 008 8h464a8 8 0 008-8v-18.624a29.169 29.169 0 00-8.7-20.847 39.878 39.878 0 00-31.3-31.723zM465.754 184l4 16H432v-16zm-8-32l4 16H432a39.759 39.759 0 00-3.35-16zM320 40h80v32h-80zm72 48v16h-64V88zM62.246 120h387.508l4 16H416v.022A39.788 39.788 0 00392 128h-32a39.788 39.788 0 00-24 8.022V136H184v.022A39.788 39.788 0 00160 128h-32a39.788 39.788 0 00-24 8.022V136H58.246zm329.732 24H392a24.027 24.027 0 0124 24v32h-16v-32a39.788 39.788 0 00-8.022-24zM368 168v-22.624A24.039 24.039 0 01384 168zm16 16v16h-16v-16zm-48-16a24.039 24.039 0 0116-22.624V168zm16 16v16h-16v-16zm-152-16a39.759 39.759 0 00-3.35-16h126.7a39.759 39.759 0 00-3.35 16zm120 16v16H200v-16zm-160.022-40H160a24.027 24.027 0 0124 24v32h-16v-32a39.788 39.788 0 00-8.022-24zM136 168v-22.624A24.039 24.039 0 01152 168zm16 16v16h-16v-16zm-48-16a24.039 24.039 0 0116-22.624V168zm16 16v16h-16v-16zm-65.754-32h37.1A39.759 39.759 0 0088 168H50.246zm-8 32H88v16H42.246zm-12 48l4-16h435.508l4 16zm50.839 215.561A27.692 27.692 0 0188 460v12H32v-12a27.692 27.692 0 012.915-12.439 8.006 8.006 0 000-7.122A27.692 27.692 0 0132 428a28 28 0 0156 0 27.692 27.692 0 01-2.915 12.439 8.006 8.006 0 000 7.122zM120 472h-16v-48h16zm32 0h-16v-48h16zm160 0H200v-16h112zm-96-32V312h80v128zm160 32h-16v-48h16zm32 0h-16v-48h16zm32 0h-16v-48h16zm0-64H328v16h16v48h-16v-20a12.013 12.013 0 00-12-12h-4V304a8 8 0 00-8-8h-96a8 8 0 00-8 8v136h-4a12.013 12.013 0 00-12 12v20h-16v-48h16v-16H99.172A44.188 44.188 0 0072 385.677V280h368zM54.246 264l-4-16h411.508l-4 16zM480 472h-24v-46.643a23.916 23.916 0 0115.861 20.067 8 8 0 003.01 5.442 13.305 13.305 0 015.129 10.51z"/><path d="M232 368v24h16v-16h8v-16h-16a8 8 0 00-8 8z"/></svg>

<?xml version="1.0"?>
<svg xmlns="http://www.w3.org/2000/svg" viewBox="0 0 512 512" width="512" height="512"><g id="outline"><path d="M352,392h64a8,8,0,0,0,8-8V336a40,40,0,0,0-80,0v48A8,8,0,0,0,352,392Zm40-78.624A24.039,24.039,0,0,1,408,336v8H392ZM392,360h16v16H392Zm-32-24a24.039,24.039,0,0,1,16-22.624V344H360Zm0,24h16v16H360Z"/><path d="M96,392h64a8,8,0,0,0,8-8V336a40,40,0,0,0-80,0v48A8,8,0,0,0,96,392Zm40-78.624A24.039,24.039,0,0,1,152,336v8H136ZM136,360h16v16H136Zm-32-24a24.039,24.039,0,0,1,16-22.624V344H104Zm0,24h16v16H104Z"/><path d="M456,408.806V280h8a8,8,0,0,0,7.761-6.06L478.246,248H488a8,8,0,0,0,7.761-9.94l-32-128A8,8,0,0,0,456,104H408V88a8,8,0,0,0,8-8V32a8,8,0,0,0-8-8H312a8,8,0,0,0-8,8V80a8,8,0,0,0,8,8v16H56a8,8,0,0,0-7.761,6.06l-32,128A8,8,0,0,0,24,248h9.754l6.485,25.94A8,8,0,0,0,48,280h8V384.19A44.054,44.054,0,0,0,16,428a43.561,43.561,0,0,0,3.006,16A43.561,43.561,0,0,0,16,460v20a8,8,0,0,0,8,8H488a8,8,0,0,0,8-8V461.376a29.169,29.169,0,0,0-8.7-20.847A39.878,39.878,0,0,0,456,408.806ZM465.754,184l4,16H432V184Zm-8-32,4,16H432a39.759,39.759,0,0,0-3.35-16ZM320,40h80V72H320Zm72,48v16H328V88ZM62.246,120H449.754l4,16H416v.022A39.788,39.788,0,0,0,392,128H360a39.788,39.788,0,0,0-24,8.022V136H184v.022A39.788,39.788,0,0,0,160,128H128a39.788,39.788,0,0,0-24,8.022V136H58.246Zm329.732,24H392a24.027,24.027,0,0,1,24,24v32H400V168A39.788,39.788,0,0,0,391.978,144ZM368,168V145.376A24.039,24.039,0,0,1,384,168Zm16,16v16H368V184Zm-48-16a24.039,24.039,0,0,1,16-22.624V168Zm16,16v16H336V184ZM200,168a39.759,39.759,0,0,0-3.35-16h126.7A39.759,39.759,0,0,0,320,168Zm120,16v16H200V184ZM159.978,144H160a24.027,24.027,0,0,1,24,24v32H168V168A39.788,39.788,0,0,0,159.978,144ZM136,168V145.376A24.039,24.039,0,0,1,152,168Zm16,16v16H136V184Zm-48-16a24.039,24.039,0,0,1,16-22.624V168Zm16,16v16H104V184ZM54.246,152h37.1A39.759,39.759,0,0,0,88,168H50.246Zm-8,32H88v16H42.246Zm-12,48,4-16H473.754l4,16ZM85.085,447.561A27.692,27.692,0,0,1,88,460v12H32V460a27.692,27.692,0,0,1,2.915-12.439,8.006,8.006,0,0,0,0-7.122A27.692,27.692,0,0,1,32,428a28,28,0,0,1,56,0,27.692,27.692,0,0,1-2.915,12.439A8.006,8.006,0,0,0,85.085,447.561ZM120,472H104V424h16Zm32,0H136V424h16Zm160,0H200V456H312Zm-96-32V312h80V440Zm160,32H360V424h16Zm32,0H392V424h16Zm32,0H424V424h16Zm0-64H328v16h16v48H328V452a12.013,12.013,0,0,0-12-12h-4V304a8,8,0,0,0-8-8H208a8,8,0,0,0-8,8V440h-4a12.013,12.013,0,0,0-12,12v20H168V424h16V408H99.172A44.188,44.188,0,0,0,72,385.677V280H440ZM54.246,264l-4-16H461.754l-4,16ZM480,472H456V425.357a23.916,23.916,0,0,1,15.861,20.067,8,8,0,0,0,3.01,5.442A13.305,13.305,0,0,1,480,461.376Z"/><path d="M232,368v24h16V376h8V360H240A8,8,0,0,0,232,368Z"/></g></svg>
